color/bos.svg

<!-- Generated by IcoMoon.io -->
<svg version="1.1" xmlns="http://www.w3.org/2000/svg" width="32" height="32" viewBox="0 0 32 32">
<title>bos</title>
<path fill="#00a8d6" d="M32 16c0 8.837-7.163 16-16 16s-16-7.163-16-16c0-8.837 7.163-16 16-16s16 7.163 16 16z"></path>
<path fill="#fff" d="M14.432 18.95v-1.917h2.954c1.97 0 2.955-0.492 2.955-1.476v-5.164c0-0.983-0.985-1.475-2.955-1.475h-4.726v3.098h-2.66v-5.016h7.090c3.94 0 5.91 1.082 5.91 3.246v5.459c0 2.164-1.97 3.246-5.91 3.246h-2.658zM20.341 20.131h2.659v1.623c0 2.164-1.97 3.246-5.91 3.246h-7.090v-11.508h7.090c0.417 0 0.81 0.012 1.183 0.036v1.921c-0.257-0.025-0.555-0.040-0.857-0.040-0.011 0-0.021 0-0.032 0h-4.724v7.673h4.727c1.97 0 2.955-0.492 2.955-1.475v-1.477z"></path>
</svg>

<svg xmlns="http://www.w3.org/2000/svg" width="32" height="32" viewBox="0 0 32 32"><g fill="none" fill-rule="evenodd"><circle cx="16" cy="16" r="16" fill="#00A8D6"/><path fill="#FFF" d="M14.432 18.95v-1.917h2.954c1.97 0 2.955-.492 2.955-1.476v-5.164c0-.983-.985-1.475-2.955-1.475H12.66v3.098H10V7h7.09C21.03 7 23 8.082 23 10.246v5.459c0 2.164-1.97 3.246-5.91 3.246h-2.658zm5.909 1.181H23v1.623C23 23.918 21.03 25 17.09 25H10V13.492h7.09c.417 0 .81.012 1.183.036v1.921a9.18 9.18 0 00-.887-.04H12.66v7.673h4.727c1.97 0 2.955-.492 2.955-1.475V20.13z"/></g></svg>
